Source Code/mun/assets/flags/COD.svg

<svg viewBox="0 0 40.5 40.5" xmlns="http://www.w3.org/2000/svg"><path d="m39.14 13-34.2 20.48a20.07 20.07 0 0 1 -3.59-5.94l34.21-20.54a19.83 19.83 0 0 1 3.58 6z" fill="#ce1021"/><path d="m35.56 7-34.21 20.54a12.48 12.48 0 0 1 -.55-1.7 19.52 19.52 0 0 1 -.8-5.59 20.23 20.23 0 0 1 34.33-14.53 12.54 12.54 0 0 1 1.23 1.28z" fill="#007fff"/><path d="m40.5 20.25a20.24 20.24 0 0 1 -34.33 14.54 13.74 13.74 0 0 1 -1.23-1.31l34.2-20.48a11.54 11.54 0 0 1 .56 1.69 19.59 19.59 0 0 1 .8 5.56z" fill="#007fff"/><g fill="#f7d618"><path d="m35.56 7-34.21 20.54a12.48 12.48 0 0 1 -.55-1.7l33.53-20.12a12.54 12.54 0 0 1 1.23 1.28z"/><path d="m39.7 14.65-33.53 20.14a13.74 13.74 0 0 1 -1.23-1.31l34.2-20.48a11.54 11.54 0 0 1 .56 1.65z"/><path d="m10.29 4.62 1.3 4.01h3.94l-3.22 2.48 1.23 4-3.25-2.47-3.26 2.47 1.23-4-3.21-2.48h3.94z"/></g></svg>

<svg xmlns="http://www.w3.org/2000/svg" viewBox="0 0 40.5 40.5"><defs><style>.cls-1{fill:#ce1021;}.cls-2{fill:#007fff;}.cls-3{fill:#f7d618;}</style></defs><g id="Ebene_2" data-name="Ebene 2"><g id="Ńëîé_1" data-name="Ńëîé 1"><path class="cls-1" d="M39.14,13,4.94,33.48a20.07,20.07,0,0,1-3.59-5.94L35.56,7A19.83,19.83,0,0,1,39.14,13Z"/><path class="cls-2" d="M35.56,7,1.35,27.54a12.48,12.48,0,0,1-.55-1.7A19.52,19.52,0,0,1,0,20.25,20.23,20.23,0,0,1,34.33,5.72,12.54,12.54,0,0,1,35.56,7Z"/><path class="cls-2" d="M40.5,20.25A20.24,20.24,0,0,1,6.17,34.79a13.74,13.74,0,0,1-1.23-1.31L39.14,13a11.54,11.54,0,0,1,.56,1.69A19.59,19.59,0,0,1,40.5,20.25Z"/><path class="cls-3" d="M35.56,7,1.35,27.54a12.48,12.48,0,0,1-.55-1.7L34.33,5.72A12.54,12.54,0,0,1,35.56,7Z"/><path class="cls-3" d="M39.7,14.65,6.17,34.79a13.74,13.74,0,0,1-1.23-1.31L39.14,13A11.54,11.54,0,0,1,39.7,14.65Z"/><polygon class="cls-3" points="10.29 4.62 11.59 8.63 15.53 8.63 12.31 11.11 13.54 15.11 10.29 12.64 7.03 15.11 8.26 11.11 5.05 8.63 8.99 8.63 10.29 4.62"/></g></g></svg>
